dist/images/icons/icon-cart.svg

<svg width="39" height="36" viewBox="0 0 39 36" fill="none" xmlns="http://www.w3.org/2000/svg">
<path d="M20.1561 22.661L20.7006 16.1987H26.8455L25.1612 22.661H20.1561ZM5.32198 16.1987H11.47L12.0151 22.661H7.00721L5.32198 16.1987ZM10.8109 8.37898L11.3555 14.8413H4.96783L3.2826 8.37898H10.8109ZM19.2486 16.1987L18.704 22.661H13.4671L12.9221 16.1987H19.2486ZM12.808 14.8413L12.2621 8.37898H19.9081L19.3631 14.8413H12.808ZM27.2005 14.8413H20.8152L21.3593 8.37898H28.8853L27.2005 14.8413ZM38.7911 0.809185C38.6683 0.258034 38.0878 -0.0915605 37.5065 0.0210866L31.3865 1.22352C30.9771 1.30423 30.6543 1.59771 30.5544 1.97838L29.4161 6.34227H1.89955C1.56609 6.34227 1.25149 6.48599 1.0459 6.73201C0.840301 6.97802 0.76625 7.29913 0.84536 7.60297L5.10121 23.9208C5.21988 24.3766 5.65544 24.6973 6.1554 24.6973H24.6295L24.1668 26.4716H6.68755C6.08825 26.4716 5.60209 26.9278 5.60209 27.4901C5.60209 28.0525 6.08825 28.5083 6.68755 28.5083H25.0181C25.5181 28.5083 25.9536 28.1876 26.0723 27.7318L27.063 23.9329C27.0644 23.9286 27.0672 23.9256 27.0685 23.9208L31.3244 7.60297C31.3262 7.5965 31.3253 7.59045 31.3276 7.58398L32.5005 3.08543L37.9512 2.01507C38.5377 1.8994 38.9139 1.3599 38.7911 0.809185Z" fill="white"/>
<mask id="mask0_205_38" style="mask-type:luminance" maskUnits="userSpaceOnUse" x="6" y="29" width="7" height="7">
<path d="M6.65308 29.9674H12.4226V35.4042H6.65308V29.9674Z" fill="white"/>
</mask>
<g mask="url(#mask0_205_38)">
<path d="M9.53421 29.9943C7.96258 29.9943 6.68762 31.205 6.68762 32.6993C6.68762 34.1932 7.96258 35.4043 9.53421 35.4043C11.1072 35.4043 12.3817 34.1932 12.3817 32.6993C12.3817 31.205 11.1072 29.9943 9.53421 29.9943Z" fill="white"/>
</g>
<mask id="mask1_205_38" style="mask-type:luminance" maskUnits="userSpaceOnUse" x="19" y="29" width="7" height="7">
<path d="M19.2518 29.9674H25.1391V35.4042H19.2518V29.9674Z" fill="white"/>
</mask>
<g mask="url(#mask1_205_38)">
<path d="M22.2074 29.9943C20.6358 29.9943 19.3608 31.205 19.3608 32.6993C19.3608 34.1932 20.6358 35.4043 22.2074 35.4043C23.7804 35.4043 25.0549 34.1932 25.0549 32.6993C25.0549 31.205 23.7804 29.9943 22.2074 29.9943Z" fill="white"/>
</g>
</svg>

<svg width="39" height="36" fill="none" xmlns="http://www.w3.org/2000/svg"><path d="M20.156 22.661l.545-6.462h6.145L25.16 22.66h-5.005zM5.322 16.199h6.148l.545 6.462H7.007l-1.685-6.462zm5.489-7.82l.544 6.462H4.968L3.283 8.38h7.528zm8.438 7.82l-.545 6.462h-5.237l-.545-6.462h6.327zm-6.441-1.358l-.546-6.462h7.646l-.545 6.462h-6.555zm14.393 0h-6.386l.544-6.462h7.526l-1.684 6.462zM38.79.81c-.123-.551-.703-.9-1.284-.788l-6.12 1.203c-.41.08-.733.374-.833.754l-1.138 4.364H1.9c-.334 0-.649.144-.854.39a.971.971 0 00-.2.871L5.1 23.921c.119.456.554.776 1.054.776H24.63l-.462 1.775H6.687c-.599 0-1.085.456-1.085 1.018 0 .563.486 1.018 1.086 1.018h18.33c.5 0 .936-.32 1.054-.776l.991-3.8.006-.011 4.255-16.318c.002-.006.001-.013.004-.019L32.5 3.085l5.45-1.07c.587-.116.963-.655.84-1.206z" fill="#fff"/><mask id="mask0_205_38" style="mask-type:luminance" maskUnits="userSpaceOnUse" x="6" y="29" width="7" height="7"><path d="M6.653 29.967h5.77v5.437h-5.77v-5.437z" fill="#fff"/></mask><g mask="url(#mask0_205_38)"><path d="M9.534 29.994c-1.571 0-2.846 1.211-2.846 2.705s1.275 2.705 2.846 2.705c1.573 0 2.848-1.21 2.848-2.705 0-1.494-1.275-2.705-2.848-2.705z" fill="#fff"/></g><mask id="mask1_205_38" style="mask-type:luminance" maskUnits="userSpaceOnUse" x="19" y="29" width="7" height="7"><path d="M19.252 29.967h5.887v5.437h-5.887v-5.437z" fill="#fff"/></mask><g mask="url(#mask1_205_38)"><path d="M22.207 29.994c-1.571 0-2.846 1.211-2.846 2.705s1.275 2.705 2.846 2.705c1.573 0 2.848-1.21 2.848-2.705 0-1.494-1.275-2.705-2.848-2.705z" fill="#fff"/></g></svg>
